!!!OTL: Christinchen (2-27) S. 83
!!!id: P0900
**kern
*clefG2
*k[f#]
*D:
{8a
=1
4a
8b
4g
8a
=2
8f#
8f#}
4.r
=3
{8a
=4
8a
8a
8b
4g
8a
=5
8f#
8f#}
4.r
=6
{8a
=7
8a
8a
8ff#
4ff#
8ee
=8
8ee
8ee
8a
4a}
=9
{8dd
=10
4dd
8g
4g
8b
=11
4b
8a
4a}
=12
{8a
=13
8a
8a
8ff#
4ff#
8ee
=14
8ee
8ee
8a
4a}
=15
{8dd
=16
4dd
8g
4g
8b
=17
4b
8a
4a}
==
*-
!!!minrhy: 8
!!!meters: 6/8 ]  ZZ[6
!!!cut: Christinchen (2-27) S. 83
!!!reg: Lothringen
!!!trd: PINCK, Louis: Verklingende Weisen, Bd 2, Metz 1928
!!!rhy1: X  X_XX_X  XX0_.
!!!rhy2: X  XXXX_X  XX0_.
!!!key: P0900  08  D 6/8 ]  ZZ[6
!!!mod: SECHSTONSKALA DUR ?]  AMBITUS[8
!!!kad: 335555
!!!akz: 543_543_5+3+25_+1465_5+3+25_+1465_
!!!fot: 'a__av_b__c__b__c__
!!!for: 'a__b__bw_c__bw_c__
!!!fok: '\__\__^__\__^__\__
!! PHRAS[AUFTAKTIG]
!!!fkt: ???, Suche nach Br&auml;utigam, Liebe
!! LOTH VKL
!! PR[22] 2K[0] 2G[16] 3K[0] 3G[2] 4A[8] 4Ü[0] 5A[2] 6K[0] 6G[0]
!! 7K[0] 7G[0] 8A[0] MEHR[0] SI[29] ABS[49] SR[16] SP[12]
!! ST[24] 2k[10] 2g[35] 3k[0] 3g[4] 4d[0] 4ü[0] 5d[0] 6k[0] 6g[0]
!! 7k[0] 7g[0] 8d[0] mehr[0] si[49] dm[-20] sr[45] sp[4]
!! 1F[72] 2F[21] 3F[0] 4F[0] LF[0] 2P[8] 3P[0] 4P[0] TRI[0] DF[3] AB[53]
!! TF[0] U3K[0] U3[0] U4[0] U4Ü[0] U5[0] U6K[0] U6[0] U7K[0] U7[0]
!! N1[16] N2K[0] N2[14] N3K[0] N3[20] N4[10] N4Ü[0] N5[20] N6K[0] N6[12]
!!!n7k: 0] N7[4] O1[4] O2K[0] O2[0] O3K[0] O3[0] HÖ[0
!!!RNB: symbol: &auml;      = a umlaut  (UTF-8: Å„)
